X: 39
T:The Munster Cloak
M:3/4
L:1/8
R:Waltz
K:G
|: G2 GA (3BcB G | A2 ABcA | G2 GABd | c2 A2 F2 |
G2 GA (3BcB G | A2 ABcA | d2 defd | c2 A2 F2 :||
|: g2 gagf | d2 g2 a2 | (3bc'b a2 g2 | f2 g2 a2 |
(3bc'b a2 g2 | f2 defd | dcAdcA |A2 G2 G2 :||
